dist/assets/uwm-icons/icon_bike.svg

<?xml version="1.0" encoding="UTF-8"?>
<svg width="16px" height="19px" viewBox="0 0 16 19" version="1.1" xmlns="http://www.w3.org/2000/svg" xmlns:xlink="http://www.w3.org/1999/xlink">
    <!-- Generator: Sketch 48.2 (47327) - http://www.bohemiancoding.com/sketch -->
    <title>icon_bike</title>
    <desc>Created with Sketch.</desc>
    <defs></defs>
    <g id="Icons" stroke="none" stroke-width="1" fill="none" fill-rule="evenodd">
        <g id="icon_bike" transform="translate(-4.000000, -3.000000)">
            <rect id="Rectangle" x="0" y="0" width="24" height="24"></rect>
            <g id="Group" transform="translate(4.000000, 3.000000)" fill="#272727">
                <path d="M3.86535684,15.0915696 L4.62306421,13.7675655 C4.94533342,14.1249552 5.19153211,14.5662899 5.2672279,15.0915696 L3.86535684,15.0915696 Z M3.06942684,18.054164 C1.83805868,18.054164 0.81466658,16.9408535 0.81466658,15.5536828 C0.81466658,14.1881217 1.81894737,13.0532016 3.06942684,13.0532016 C3.35384816,13.0532016 3.63826947,13.1163682 3.88446815,13.2215072 L2.69057316,15.2806537 C2.61487737,15.4277653 2.59576605,15.6168494 2.67146184,15.7639609 C2.74753237,15.9110725 2.89892395,16.0162116 3.05031553,16.0162116 L5.24849131,16.0162116 C5.07798842,17.1926886 4.16851474,18.054164 3.06942684,18.054164 Z M7.14313447,15.7427669 C7.02959079,15.5329043 6.97263158,15.3226262 6.97263158,15.0703756 L6.157965,15.0703756 C6.04404658,14.2089002 5.66556763,13.4733423 5.096725,12.9272841 L5.76037473,11.7927796 L7.06743868,14.5243174 C7.16224579,14.0198161 7.25705289,13.5157304 7.35186,13.0532016 L6.49897079,11.2670843 L7.57894737,11.2670843 C7.06743868,11.0148336 5.94961421,10.615887 5.07798842,10.3636364 L5.30545052,10.8257496 L4.39597684,12.4227828 C3.99801184,12.2129203 3.56182421,12.1077812 3.10764947,12.1077812 C1.38313447,12.1077812 0,13.662842 0,15.5536828 C0,17.4657177 1.40224579,19 3.10764947,19 C4.68002342,19 5.9874621,17.6971899 6.19581289,16.0162116 L7.40844447,16.0162116 C7.27616421,15.9742391 7.20009368,15.8691 7.14313447,15.7427669 Z" id="Fill-257"></path>
                <path d="M12.912005,18.0929496 C11.6809304,18.0929496 10.6577822,17.0244243 10.6577822,15.6939509 C10.6577822,14.8873738 11.0365456,14.1816686 11.604878,13.7383104 L12.5141349,15.8956948 C12.5901873,16.056771 12.7415428,16.157643 12.912005,16.157643 C12.968576,16.157643 13.0258963,16.1373091 13.0824673,16.117374 C13.3098752,16.016502 13.404285,15.7342199 13.2911431,15.5125408 L12.3815115,13.3754902 C12.5519738,13.3352212 12.722436,13.315286 12.8928983,13.315286 C14.1243476,13.315286 15.1474957,14.3834126 15.1474957,15.7142848 C15.1474957,17.0244243 14.1434543,18.0929496 12.912005,18.0929496 M12.912005,12.3875031 C12.6089194,12.3875031 12.3249405,12.4281708 12.040587,12.5286441 L10.2790189,8.35581364 C10.2033411,8.19433874 10.051611,8.09346676 9.88114872,8.09346676 L9.48327858,8.09346676 C9.40760083,7.97265961 9.29408421,7.89212152 9.16108619,7.85145376 C8.38445268,7.62977464 7.58908705,7.28728836 7.38041128,7.12621216 C7.20994902,6.78332718 6.81245353,5.99708395 6.47152903,5.29137882 C6.56631353,4.60600757 6.47152903,3.63835427 5.39180988,3.47687936 C4.33082285,3.33573834 4.14125384,3.86003339 3.72465158,5.1502378 C3.32678145,6.38023798 3.2511037,8.33547977 3.55381469,9.48454315 C3.64859919,9.82742813 3.81906145,10.1499792 4.02773722,10.1699144 C4.8422096,10.2508512 7.22905578,11.0370944 7.77865606,11.3795807 C7.77865606,11.9644787 7.49430254,13.6781062 7.17248479,15.0891177 C7.07770029,15.5125408 7.32384029,15.9359639 7.72171042,16.0364372 C7.81612029,16.056771 7.91090479,16.056771 8.0056893,16.056771 C8.29004281,16.016502 8.53618281,15.774489 8.61186056,15.4519379 C9.52111746,11.3193765 9.21840647,10.7950814 9.06630169,10.5530684 C8.72537718,9.98850432 7.47519578,9.48454315 6.37674452,9.14205687 C6.35763776,8.77923672 6.338531,8.25494167 6.338531,7.73064661 C6.338531,7.75098049 6.35763776,7.77091566 6.35763776,7.77091566 C6.43331551,7.93239056 6.67945551,8.39608269 8.82016169,9.0411849 C8.87710732,9.06151877 8.93405295,9.06151877 8.97151718,9.06151877 C9.06630169,9.06151877 9.14197943,9.0411849 9.23676394,9.00091585 L9.5967952,9.00091585 L10.297751,10.6742743 L9.48327858,10.6742743 C9.54022421,10.8556844 9.57806309,11.1379664 9.55933097,11.6016585 L10.0325042,11.6016585 L9.48327858,12.4281708 C9.42633295,12.972401 9.31281633,13.6781062 9.12362196,14.5851566 L10.8469766,11.9644787 L11.2452214,12.8918629 C10.3738034,13.4763622 9.78636421,14.5046185 9.78636421,15.6939509 C9.78636421,17.5283855 11.1879011,19 12.8928983,19 C14.5978954,19 15.999807,17.5084503 15.999807,15.6939509 C16.0189137,13.8794514 14.6170022,12.3875031 12.912005,12.3875031" id="Fill-258"></path>
                <path d="M4.21076885,1.69817276 C4.22639536,0.74419764 4.99291658,-0.0157772322 5.92310488,0.000248875028 C6.85329318,0.0162749822 7.59472975,0.802397714 7.57869202,1.75637283 C7.56306551,2.70992621 6.79654429,3.47032282 5.86635599,3.45429671 C4.93657891,3.43827061 4.19514235,2.65214788 4.21076885,1.69817276" id="Fill-259"></path>
            </g>
        </g>
    </g>
</svg>

<svg width="16" height="19" xmlns="http://www.w3.org/2000/svg"><g fill="none" fill-rule="evenodd"><path d="M-4-3h24v24H-4z"/><g fill="#272727"><path d="M3.865 15.092l.758-1.324c.322.357.569.798.644 1.324H3.865zm-.796 2.962c-1.23 0-2.254-1.113-2.254-2.5 0-1.366 1.004-2.5 2.254-2.5.285 0 .57.062.815.168L2.691 15.28a.544.544 0 0 0-.02.483c.077.147.228.252.38.252h2.197c-.17 1.177-1.08 2.038-2.179 2.038zm4.074-2.311a1.36 1.36 0 0 1-.17-.673h-.815a3.582 3.582 0 0 0-1.061-2.143l.663-1.134 1.307 2.731c.095-.504.19-1.008.285-1.47l-.853-1.787h1.08c-.512-.252-1.63-.651-2.501-.903l.227.462-.909 1.597a2.74 2.74 0 0 0-1.288-.315C1.383 12.108 0 13.663 0 15.554 0 17.466 1.402 19 3.108 19c1.572 0 2.88-1.303 3.088-2.984h1.212c-.132-.042-.208-.147-.265-.273z"/><path d="M12.912 18.093c-1.231 0-2.254-1.069-2.254-2.399 0-.807.379-1.512.947-1.956l.91 2.158a.44.44 0 0 0 .397.262.52.52 0 0 0 .17-.04.445.445 0 0 0 .21-.605l-.91-2.138c.17-.04.34-.06.51-.06 1.232 0 2.255 1.068 2.255 2.4 0 1.31-1.004 2.378-2.235 2.378m0-5.705c-.303 0-.587.04-.871.14l-1.762-4.172a.44.44 0 0 0-.398-.263h-.398a.568.568 0 0 0-.322-.242c-.777-.221-1.572-.564-1.78-.725-.171-.343-.569-1.129-.91-1.835.095-.685 0-1.653-1.08-1.814-1.06-.141-1.25.383-1.666 1.673-.398 1.23-.474 3.185-.171 4.335.095.342.265.665.474.685.814.08 3.201.867 3.75 1.21 0 .584-.284 2.298-.606 3.71-.094.423.152.846.55.946.094.02.189.02.284.02.284-.04.53-.282.606-.604.91-4.133.606-4.657.454-4.899-.34-.564-1.59-1.068-2.69-1.41A28.11 28.11 0 0 1 6.34 7.73c0 .02.019.04.019.04.075.161.321.625 2.462 1.27a.45.45 0 0 0 .152.02c.094 0 .17-.02.265-.06h.36l.7 1.673h-.814c.057.182.095.464.076.928h.474l-.55.826c-.057.544-.17 1.25-.36 2.157l1.724-2.62.398.927c-.871.584-1.459 1.613-1.459 2.802 0 1.834 1.402 3.306 3.107 3.306C14.598 19 16 17.508 16 15.694c.019-1.815-1.383-3.306-3.088-3.306M4.21 1.698C4.227.744 4.994-.016 5.924 0c.93.016 1.672.802 1.656 1.756-.016.954-.782 1.714-1.713 1.698-.93-.016-1.67-.802-1.655-1.756"/></g></g></svg>
